symbols/web/table_view/materialsymbolsoutlined/table_view_wght200grad200_24px.svg

<svg xmlns="http://www.w3.org/2000/svg" height="24" width="24"><path d="M10.025 20.75q-.975 0-1.625-.65t-.65-1.625v-8.95q0-.975.65-1.625t1.625-.65h8.95q.975 0 1.625.65t.65 1.625v8.95q0 .975-.65 1.625t-1.625.65ZM9.4 11.175h10.2v-1.65q0-.275-.175-.45t-.45-.175h-8.95q-.275 0-.45.175t-.175.45Zm3.925 4h2.35v-2.35h-2.35Zm0 3.925h2.35v-2.275h-2.35ZM9.4 15.175h2.275v-2.35H9.4Zm7.925 0H19.6v-2.35h-2.275Zm-7.3 3.925h1.65v-2.275H9.4v1.65q0 .275.175.45t.45.175Zm7.3 0h1.65q.275 0 .45-.175t.175-.45v-1.65h-2.275Zm-12.3-3.35q-.975 0-1.625-.65t-.65-1.625v-8.95q0-.975.65-1.625t1.625-.65h8.95q.975 0 1.625.65t.65 1.625v1.4H14.6v-1.4q0-.275-.175-.45t-.45-.175h-8.95q-.275 0-.45.175t-.175.45v8.95q0 .275.175.45t.45.175h1.4v1.65Z"/></svg>

<svg xmlns="http://www.w3.org/2000/svg" height="24" width="24"><path d="M10.025 20.75Q9.05 20.75 8.4 20.1Q7.75 19.45 7.75 18.475V9.525Q7.75 8.55 8.4 7.9Q9.05 7.25 10.025 7.25H18.975Q19.95 7.25 20.6 7.9Q21.25 8.55 21.25 9.525V18.475Q21.25 19.45 20.6 20.1Q19.95 20.75 18.975 20.75ZM9.4 11.175H19.6V9.525Q19.6 9.25 19.425 9.075Q19.25 8.9 18.975 8.9H10.025Q9.75 8.9 9.575 9.075Q9.4 9.25 9.4 9.525ZM13.325 15.175H15.675V12.825H13.325ZM13.325 19.1H15.675V16.825H13.325ZM9.4 15.175H11.675V12.825H9.4ZM17.325 15.175H19.6V12.825H17.325ZM10.025 19.1H11.675V16.825H9.4V18.475Q9.4 18.75 9.575 18.925Q9.75 19.1 10.025 19.1ZM17.325 19.1H18.975Q19.25 19.1 19.425 18.925Q19.6 18.75 19.6 18.475V16.825H17.325ZM5.025 15.75Q4.05 15.75 3.4 15.1Q2.75 14.45 2.75 13.475V4.525Q2.75 3.55 3.4 2.9Q4.05 2.25 5.025 2.25H13.975Q14.95 2.25 15.6 2.9Q16.25 3.55 16.25 4.525V5.925H14.6V4.525Q14.6 4.25 14.425 4.075Q14.25 3.9 13.975 3.9H5.025Q4.75 3.9 4.575 4.075Q4.4 4.25 4.4 4.525V13.475Q4.4 13.75 4.575 13.925Q4.75 14.1 5.025 14.1H6.425V15.75Z"/></svg>
